X: 1
T: Poskaku\vsa  [Em]
O: Bosnia
M: 2/4
L: 1/8
K: Em
|: "Em"[EG][EG] [FA][GB] | "Em"[Ac][GB] [FA][EG] \
| "Em"[EG][EG] [G2B2] | "Am"[Ac][GB] [FA][EG] \
| "Em"[EG][EG] [G2B2] | "Am"[Ac][GB] [FA][EG] \
| "B"[F2A2] [F2A2] | [F2A2] z2 :|
|: "G"[Bd][^A^c] [Bd][Ac] | "Em"[Bd][GB] [FA][EG] \
| "Em"[EG][EG] [G2B2] | "Am"[Ac][GB] [FA][EG] \
| "Em"[EG][EG] [G2B2] | "Am"[Ac][GB] [FA][EG] \
| "B"[F2A2] [F2A2] | [F2A2] z2 :|


%%sep 3 1 500

